src/assets/icons/fa/external-link-square.svg

<?xml version="1.0" encoding="utf-8"?>
<svg width="1792" height="1792" viewBox="0 0 1792 1792" xmlns="http://www.w3.org/2000/svg"><path d="M1408 928v-480q0-26-19-45t-45-19h-480q-42 0-59 39-17 41 14 70l144 144-534 534q-19 19-19 45t19 45l102 102q19 19 45 19t45-19l534-534 144 144q18 19 45 19 12 0 25-5 39-17 39-59zm256-512v960q0 119-84.5 203.5t-203.5 84.5h-960q-119 0-203.5-84.5t-84.5-203.5v-960q0-119 84.5-203.5t203.5-84.5h960q119 0 203.5 84.5t84.5 203.5z"/></svg>

<svg width="1792" height="1792" xmlns="http://www.w3.org/2000/svg"><path d="M1408 928V448q0-26-19-45t-45-19H864q-42 0-59 39-17 41 14 70l144 144-534 534q-19 19-19 45t19 45l102 102q19 19 45 19t45-19l534-534 144 144q18 19 45 19 12 0 25-5 39-17 39-59zm256-512v960q0 119-84.5 203.5T1376 1664H416q-119 0-203.5-84.5T128 1376V416q0-119 84.5-203.5T416 128h960q119 0 203.5 84.5T1664 416z"/></svg>
